X: 23654
T: Limerick Tinker, The
R: jig
M: 6/8
K: Gmajor
A2 B cBA|BAG AG/F/E|A2 B cee|dBA G2 E|
A2 B cBA|BAG Ae^f|gba g^fe|dBG GAB||
eg/f/e edB|e2 A AB/c/d|eg/f/e edB|dBG GB/c/d|
eg/f/e edB|e2 A Ae^f|gba g^fe|dBG GAB||
c2A B2A|e2A A2B|c2A B2A|dBG GAB|
cBA BAG|AG/F/E GAB|gba g^fe|dBG GAB||

